icon-themes/sifr_svg/cmd/lc_graphicfiltermosaic.svg

<svg viewBox="0 0 24 24" xmlns="http://www.w3.org/2000/svg"><g fill="#555753"><path d="m0 0v8h8v-8zm8 8v8h8v-8zm8 0h8v-8h-8zm0 8v8h8v-8zm-8 0h-8v8h8z"/><path d="m8 0v8h8v-8zm8 8v8h8v-8zm0 8h-8v8h8zm-8 0v-8h-8v8z" opacity=".35"/></g></svg>

<svg xmlns="http://www.w3.org/2000/svg" viewBox="0 0 24 24">
  <path
     style="fill:#555753"
     d="M 0 0 L 0 8 L 8 8 L 8 0 L 0 0 z M 8 8 L 8 16 L 16 16 L 16 8 L 8 8 z M 16 8 L 24 8 L 24 0 L 16 0 L 16 8 z M 16 16 L 16 24 L 24 24 L 24 16 L 16 16 z M 8 16 L 0 16 L 0 24 L 8 24 L 8 16 z "
     />
  <path
     style="opacity:0.35;fill:#555753"
     d="M 8 0 L 8 8 L 16 8 L 16 0 L 8 0 z M 16 8 L 16 16 L 24 16 L 24 8 L 16 8 z M 16 16 L 8 16 L 8 24 L 16 24 L 16 16 z M 8 16 L 8 8 L 0 8 L 0 16 L 8 16 z "
     />
</svg>
